X:130
T:Alexander's Hornpipe
M:C
O:England
O:Scotland
O:Ireland
R:Hornpipe
Z:Richard Robinson 
%%TUNEURL: http://www.leeds.ac.uk/music/Info/RRTuneBk/gettune/000007e8.html
%%ID:000007e8
K:D
(3ABc |\
dAFA DAde|fdcd A2ef|\
(3ggg ge fdcd|(3efe (3dcB A2(3ABc|
dAFA DAde|fdcd A2ef|\
(3gag (3gfe fdcd|(3edd dc d2 :|
|: AG |\
FAdA (3FFA dA|GBdB (3GGB dB|\
Acec Acec|dfaf (3gfe (3dcB|
FAdA (3FFB dA|GBdB (3GGB dB|\
Acef gecd|eddc d2:|
